X: 1067
T: Amanecer - Dawn
R: reel
M: 4/4
K: Fmajor
A,2C2F2G2|G8|A,2C2F2A2|G8|A,2C2F2A2|A4 G3 D|A4 G3D|F4 E4|
A,2C2F2G2|G3 C AGFC|A,2 C2 F2A2|G8|A,2C2F2A2|c4 B3 A|A4 G3F|F8|
A,2C2F2G2|G3 C AGFC|A,2 C2 F2A2|G8|A,2C2F2A2|A4 G3 D|A4 G3D|F4 E4|
A,2C2F2G2|G3 C AGFC|A,2 C2 F2A2|B,G7|A,2C2F2A2|c4 B3 A|A4 G3F|F8|
K:Bb
|:D2 F2 B2 B2|=B4 c4|D2 F2 B2 d2|=B4 c4|D2 F2 B2 d2|
[1d4 c3 G|d4 c3 G|G4 F4:|2 f4 e2d2|d4c2B2|B8||
K:Gmaj
|:G4 A3B|B6 G2|c3 d e3 f|g3 d e3 c|B4 A4|d6 B2|c3 d e3 a|g3 d e3 c|B4 A3 G|G8:|
|:B4 A3 B|c4 B3 c|A8|A2 F2 E2 D2|B4 A3 B|c e3 d3 B|AA7 G2|
e2 f2 g2 ge|d3 e BA G2|e2 f2 g2 ge|d3e B4|c2d2e3c|B4 c3d|A6d2|a3 gf2ed|
e2 f2 g2 ge|d3 e BA G2|e2 f2 g2 gd'|b6 g2|c'2 b2 a2c'2|bg d3 eB2|cdg4fa|g6D2:|
|:B,2 D2 G2 A2|A8|B,2 D2 G2B2|A8|B,2D2G2B2|B4 A3 E|B4 A3 E|E4D4:
B,2 D2 G2 A2|A3 G BAAG|B,2 D2G2 B2|A8|B,2 D2 G2 B2|d4 c3 B|B4 A3 G|G8|
B,2 D2 G2 A2|A3 G BAAG|B,2 D2G2 B2|A8|B,2 D2 G2 B2|B4 A3 E|B4 A3 E|E4 D4|
B,2 D2 G2 A2|A3 d cBBG|DB,DG B,DGB|A8|B,2 D2 G2B2|d4c3B|B4 A3G|
G2 D2G2 B2|"rit"d2 c2 c2 B2|B2 A2 A2 G2|G+fermata+g7||

